src/assets/images/home_pade/icon-repair.svg

<svg width="64" height="64" fill="none" xmlns="http://www.w3.org/2000/svg">
  <g clip-path="url(#a)">
    <path fill-rule="evenodd" clip-rule="evenodd" d="M18.3199 50.4904c-3.0905 3.0905-3.0905 8.1011 0 11.1916 3.0905 3.0905 8.1012 3.0905 11.1916 0l10.4918-10.4917 10.4918 10.4918c3.0905 3.0905 8.1012 3.0905 11.1917 0 3.0905-3.0905 3.0905-8.1011 0-11.1916L51.1949 39.9986l10.4926-10.4925c3.0905-3.0905 3.0905-8.1012 0-11.1917-3.0905-3.0904-8.1012-3.0904-11.1917 0L40.0033 28.807 29.5108 18.3145c-3.0904-3.0904-8.1011-3.0904-11.1916 0-3.0905 3.0905-3.0905 8.1012 0 11.1917l10.4925 10.4924-10.4918 10.4918Z" fill="#E5E5E5"/>
    <path d="M43.0987-.11975c-.3324.008791-.678.0303272-1.0148.0698839C40.7417.102647 39.3554.468767 38.0259.961468c-2.6589.985402-5.1076 2.476692-6.6821 4.046652-1.7011 1.69611-2.5364 3.76712-2.5188 5.89488.0132 1.8402.704 3.6976 1.7143 5.4768l-2.554 2.5813c-.3324.2703-.4854.7019-.3893 1.1203.0961.4145.4241.7415.8398.8373.4196.0958.8525-.0567 1.1236-.3881l3.1486-3.1395c.3721-.3749.4289-.9546.1402-1.395-1.1456-1.766-1.7711-3.5104-1.7844-5.0931-.0132-1.58275.5339-3.00855 1.8545-4.32535 1.2241-1.22099 3.533-2.638 5.9121-3.52319 1.4956-.5538 2.9212-.76301 4.233-.80212l-4.233 4.18598c-.0133.02154-.026.04791-.0349.06944-1.15 1.30801-1.2025 3.30079.0349 4.53494l5.9473 5.93c.0132.0132.022.0216.0352.0347 1.3119 1.1468 3.3105 1.1991 4.5478-.0347l4.2331-4.2207c-.0349 1.3296-.2447 2.7642-.8045 4.2554-.8834 2.3589-2.3045 4.6352-3.5335 5.8602-1.3206 1.3172-2.7246 1.8011-4.3031 1.7791-1.5785-.0215-3.3673-.6408-5.2125-1.744-.4417-.2615-1.0015-.1877-1.3647.1745l-1.784 1.7787c-.4461.4316-.4505 1.1428-.0176 1.5871.4329.4448 1.1456.4492 1.5917.0176l1.2594-1.2557c1.8192.9722 3.6472 1.6482 5.4929 1.6741 2.1163.0308 4.211-.7454 5.912-2.4415 1.5702-1.5655 3.0702-3.9895 4.0585-6.6275.9883-2.638 1.5084-5.4984.6995-7.91838-.1269-.36656-.4328-.63686-.8088-.72388-.3804-.08307-.7741.03032-1.0452.30502L47.7866 15.368c-.3152.3139-.9623.3574-1.4344 0-.022-.0175-.048-.0175-.0701-.0347l-5.8772-5.86054c-.3324-.3314-.35-1.02452.0697-1.49964l5.8776-5.86055c.2755-.2703.3893-.6628.3059-1.0421-.0872-.374911-.3583-.679938-.726-.806519-.8961-.3054662-1.8407-.414467-2.8334-.383701ZM3.74108-.015144c-.23627.034722-.45932.143723-.62991.313817L.312509 3.08918c-.3627816.36217-.437277.92036-.174999 1.36075l4.72321 8.16227c.23583.3837.67355.5886 1.1192.5235l2.4491-.3837L23.6121 27.8908l-.5594.5582c-1.2378 1.2337-1.2378 3.2309 0 4.4651l.7696.8021c.8918.8896 2.1207.8852 3.2183.5235l1.8893 1.8486c-.1269 1.504.3147 2.9997 1.3996 4.0814l13.6437 13.6387c2.7639 2.7558 7.2415 2.7558 10.0054 0v-.0347c2.6545-2.7817 2.6898-7.26 0-9.9415L40.3 30.2282c-1.1285-1.1252-2.6285-1.4742-4.0933-1.3955l-1.854-1.8838c.3628-1.0944.3672-2.3198-.525-3.2089l-.8045-.7674c-.6167-.6149-1.4255-.9419-2.2393-.9419-.8132 0-1.6221.327-2.2388.9419l-.5598.5577L12.8022 8.39154l.3849-2.44197c.0652-.44435-.1402-.88079-.525-1.11594L4.4759.124184c-.19263-.1090012-.41127-.1569088-.62991-.139328h-.10491ZM4.1259 2.49627l6.7522 3.87217-.35 2.26748c-.048.34414.0701.69312.3148.94145L26.4112 25.1003l-1.2246 1.221L9.61831 10.7984c-.24905-.244-.59905-.3618-.9442-.3139l-2.2741.349-3.88348-6.73254L4.1259 2.49627Zm26.658 21.80153c.2495 0 .4986.0786.6648.2443l.7696.8021c.3676.3666.3632.9116.0701 1.2562-.3892.4487-.3588 1.1247.0701 1.5348l2.5536 2.5461c.2583.2576.621.3749.9799.3143 1.0363-.1701 2.1207.0914 2.8334.8021l13.6442 13.6392c1.784 1.7787 1.8016 4.8571 0 6.7673-1.9373 1.9312-4.8497 1.9312-6.787 0l-13.679-13.6045c-.7437-.741-1.0364-1.7919-.8045-2.7206.1005-.3925-.022-.8026-.3152-1.0817l-2.5535-2.5461c-.4113-.4277-1.0893-.458-1.5393-.0699-.3456.2923-.8922.2967-1.2598-.0699l-.8045-.7674c-.3324-.3314-.3324-.9942 0-1.3256l5.4924-5.4764c.1662-.1657.4157-.2443.6647-.2443Zm-10.9848 3.3491c-.2539.0347-.4897.1613-.6647.3485l-5.3179 5.3024c-.7608-.1486-1.5084-.2791-2.2741-.2791-6.31008 0-11.439714 5.1147-11.439714 11.4064 0 6.2922 5.129634 11.3717 11.439714 11.3717 6.3106 0 11.4049-5.0795 11.4049-11.3717 0-.8153-.1833-1.6218-.3848-2.4068l3.8487-3.837c.4461-.4316.45-1.1423.0172-1.5871-.4329-.4448-1.1457-.4492-1.5918-.0176l-4.233 4.2559c-.3192.305-.4285.7713-.2799 1.1858.2799.741.3848 1.4869.3848 2.4068 0 5.0927-4.058 9.1394-9.1661 9.1394-5.10757 0-9.20087-4.0467-9.20087-9.1394s4.0933-9.1741 9.20087-9.1741c.8005 0 1.605.1134 2.4143.3138.3804.0831.7785-.0347 1.0496-.3138l5.7022-5.6856c.3324-.3187.4329-.8114.2539-1.2342-.175-.4228-.5995-.6931-1.0584-.6843h-.1049Zm15.708 6.1392-1.6093 1.6047 13.4339 13.3948 1.6094-1.6047-13.434-13.3948Zm-22.775 4.1508c-.0612.0088-.1181.0176-.175.0352L7.30938 39.437c-.37159.1046-.66473.3969-.76964.7674l-1.4692 5.2325c-.12254.3964-.01322.8241.27991 1.1159l3.9183 3.9069c.28432.2791.69956.3881 1.08435.2791l5.3875-1.4649c.3937-.1002.7044-.4101.8049-.8026l1.3295-5.232c.1093-.3837 0-.7982-.2799-1.0817l-3.9183-3.9069c-.2495-.2439-.5991-.3617-.9447-.3138Zm-.2098 2.3721 3.0085 2.9997-1.0143 4.0115-4.0933 1.0817-3.00891-3.0002 1.08482-4.0115 4.02319-1.0812Z" fill="#000"/>
  </g>
  <defs>
    <clipPath id="a">
      <path fill="#fff" d="M0 0h64v64H0z"/>
    </clipPath>
  </defs>
</svg>

<svg width="64" height="64" viewBox="0 0 64 64" fill="none" xmlns="http://www.w3.org/2000/svg">
<g clip-path="url(#clip0_2_690)">
<path fill-rule="evenodd" clip-rule="evenodd" d="M18.3199 50.4904C15.2294 53.5809 15.2294 58.5915 18.3199 61.682C21.4104 64.7725 26.4211 64.7725 29.5115 61.682L40.0033 51.1903L50.4951 61.6821C53.5856 64.7726 58.5963 64.7726 61.6868 61.6821C64.7773 58.5916 64.7773 53.581 61.6868 50.4905L51.1949 39.9986L61.6875 29.5061C64.778 26.4156 64.778 21.4049 61.6875 18.3144C58.597 15.224 53.5863 15.224 50.4958 18.3144L40.0033 28.807L29.5108 18.3145C26.4204 15.2241 21.4097 15.2241 18.3192 18.3145C15.2287 21.405 15.2287 26.4157 18.3192 29.5062L28.8117 39.9986L18.3199 50.4904Z" fill="#E5E5E5"/>
<path d="M43.0987 -0.11975C42.7663 -0.110959 42.4207 -0.0894228 42.0839 -0.0498661C40.7417 0.102647 39.3554 0.468767 38.0259 0.961468C35.367 1.94687 32.9183 3.43816 31.3438 5.00812C29.6427 6.70423 28.8074 8.77524 28.825 10.903C28.8382 12.7432 29.529 14.6006 30.5393 16.3798L27.9853 18.9611C27.6529 19.2314 27.4999 19.663 27.596 20.0814C27.6921 20.4959 28.0201 20.8229 28.4358 20.9187C28.8554 21.0145 29.2883 20.862 29.5594 20.5306L32.708 17.3911C33.0801 17.0162 33.1369 16.4365 32.8482 15.9961C31.7026 14.2301 31.0771 12.4857 31.0638 10.903C31.0506 9.32025 31.5977 7.89445 32.9183 6.57765C34.1424 5.35666 36.4513 3.93965 38.8304 3.05446C40.326 2.50066 41.7516 2.29145 43.0634 2.25234L38.8304 6.43832C38.8171 6.45986 38.8044 6.48623 38.7955 6.50776C37.6455 7.81577 37.593 9.80855 38.8304 11.0427L44.7777 16.9727C44.7909 16.9859 44.7997 16.9943 44.8129 17.0074C46.1248 18.1542 48.1234 18.2065 49.3607 16.9727L53.5938 12.752C53.5589 14.0816 53.3491 15.5162 52.7893 17.0074C51.9059 19.3663 50.4848 21.6426 49.2558 22.8676C47.9352 24.1848 46.5312 24.6687 44.9527 24.6467C43.3742 24.6252 41.5854 24.0059 39.7402 22.9027C39.2985 22.6412 38.7387 22.715 38.3755 23.0772L36.5915 24.8559C36.1454 25.2875 36.141 25.9987 36.5739 26.443C37.0068 26.8878 37.7195 26.8922 38.1656 26.4606L39.425 25.2049C41.2442 26.1771 43.0722 26.8531 44.9179 26.879C47.0342 26.9098 49.1289 26.1336 50.8299 24.4375C52.4001 22.872 53.9001 20.448 54.8884 17.81C55.8767 15.172 56.3968 12.3116 55.5879 9.89162C55.461 9.52506 55.1551 9.25476 54.7791 9.16774C54.3987 9.08467 54.005 9.19806 53.7339 9.47276L47.7866 15.368C47.4714 15.6819 46.8243 15.7254 46.3522 15.368C46.3302 15.3505 46.3042 15.3505 46.2821 15.3333L40.4049 9.47276C40.0725 9.14136 40.0549 8.44824 40.4746 7.97312L46.3522 2.11257C46.6277 1.84227 46.7415 1.44977 46.6581 1.07047C46.5709 0.695559 46.2998 0.390532 45.9321 0.263951C45.036 -0.0415152 44.0914 -0.150516 43.0987 -0.11975ZM3.74108 -0.015144C3.50481 0.019578 3.28176 0.128579 3.11117 0.298673L0.312509 3.08918C-0.0502726 3.45135 -0.124768 4.00954 0.13751 4.44993L4.86072 12.6122C5.09655 12.9959 5.53427 13.2008 5.97992 13.1357L8.42902 12.752L23.6121 27.8908L23.0527 28.449C21.8149 29.6827 21.8149 31.6799 23.0527 32.9141L23.8223 33.7162C24.7141 34.6058 25.943 34.6014 27.0406 34.2397L28.9299 36.0883C28.803 37.5923 29.2446 39.088 30.3295 40.1697L43.9732 53.8084C46.7371 56.5642 51.2147 56.5642 53.9786 53.8084C53.9786 53.7957 53.9786 53.7869 53.9786 53.7737C56.6331 50.992 56.6684 46.5137 53.9786 43.8322L40.3 30.2282C39.1715 29.103 37.6715 28.754 36.2067 28.8327L34.3527 26.9489C34.7155 25.8545 34.7199 24.6291 33.8277 23.74L33.0232 22.9726C32.4065 22.3577 31.5977 22.0307 30.7839 22.0307C29.9707 22.0307 29.1618 22.3577 28.5451 22.9726L27.9853 23.5303L12.8022 8.39154L13.1871 5.94957C13.2523 5.50522 13.0469 5.06878 12.6621 4.83363L4.4759 0.124184C4.28327 0.0151828 4.06463 -0.0327248 3.84599 -0.015144C3.81117 -0.015144 3.7759 -0.015144 3.74108 -0.015144ZM4.1259 2.49627L10.8781 6.36844L10.5281 8.63592C10.4801 8.98006 10.5982 9.32904 10.8429 9.57737L26.4112 25.1003L25.1866 26.3213L9.61831 10.7984C9.36926 10.5544 9.01926 10.4366 8.67411 10.4845L6.40001 10.8335L2.51653 4.10096L4.1259 2.49627ZM30.7839 24.2978C31.0334 24.2978 31.2825 24.3764 31.4487 24.5421L32.2183 25.3442C32.5859 25.7108 32.5815 26.2558 32.2884 26.6004C31.8992 27.0491 31.9296 27.7251 32.3585 28.1352L34.9121 30.6813C35.1704 30.9389 35.5331 31.0562 35.892 30.9956C36.9283 30.8255 38.0127 31.087 38.7254 31.7977L52.3696 45.4369C54.1536 47.2156 54.1712 50.294 52.3696 52.2042C50.4323 54.1354 47.5199 54.1354 45.5826 52.2042L31.9036 38.5997C31.1599 37.8587 30.8672 36.8078 31.0991 35.8791C31.1996 35.4866 31.0771 35.0765 30.7839 34.7974L28.2304 32.2513C27.8191 31.8236 27.1411 31.7933 26.6911 32.1814C26.3455 32.4737 25.7989 32.4781 25.4313 32.1115L24.6268 31.3441C24.2944 31.0127 24.2944 30.3499 24.6268 30.0185L30.1192 24.5421C30.2854 24.3764 30.5349 24.2978 30.7839 24.2978ZM19.7991 27.6469C19.5452 27.6816 19.3094 27.8082 19.1344 27.9954L13.8165 33.2978C13.0557 33.1492 12.3081 33.0187 11.5424 33.0187C5.23232 33.0187 0.102686 38.1334 0.102686 44.4251C0.102686 50.7173 5.23232 55.7968 11.5424 55.7968C17.853 55.7968 22.9473 50.7173 22.9473 44.4251C22.9473 43.6098 22.764 42.8033 22.5625 42.0183L26.4112 38.1813C26.8573 37.7497 26.8612 37.039 26.4284 36.5942C25.9955 36.1494 25.2827 36.145 24.8366 36.5766L20.6036 40.8325C20.2844 41.1375 20.1751 41.6038 20.3237 42.0183C20.6036 42.7593 20.7085 43.5052 20.7085 44.4251C20.7085 49.5178 16.6505 53.5645 11.5424 53.5645C6.43483 53.5645 2.34153 49.5178 2.34153 44.4251C2.34153 39.3324 6.43483 35.251 11.5424 35.251C12.3429 35.251 13.1474 35.3644 13.9567 35.5648C14.3371 35.6479 14.7352 35.5301 15.0063 35.251L20.7085 29.5654C21.0409 29.2467 21.1414 28.754 20.9624 28.3312C20.7874 27.9084 20.3629 27.6381 19.904 27.6469C19.8688 27.6469 19.8339 27.6469 19.7991 27.6469ZM35.5071 33.7861L33.8978 35.3908L47.3317 48.7856L48.9411 47.1809L35.5071 33.7861ZM12.7321 37.9369C12.6709 37.9457 12.614 37.9545 12.5571 37.9721L7.30938 39.437C6.93779 39.5416 6.64465 39.8339 6.53974 40.2044L5.07054 45.4369C4.948 45.8333 5.05732 46.261 5.35045 46.5528L9.26875 50.4597C9.55307 50.7388 9.96831 50.8478 10.3531 50.7388L15.7406 49.2739C16.1343 49.1737 16.445 48.8638 16.5455 48.4713L17.875 43.2393C17.9843 42.8556 17.875 42.4411 17.5951 42.1576L13.6768 38.2507C13.4273 38.0068 13.0777 37.889 12.7321 37.9369ZM12.5223 40.309L15.5308 43.3087L14.5165 47.3202L10.4232 48.4019L7.41429 45.4017L8.49911 41.3902L12.5223 40.309Z" fill="black"/>
</g>
<defs>
<clipPath id="clip0_2_690">
<rect width="64" height="64" fill="white"/>
</clipPath>
</defs>
</svg>
